X: '1'
T:Geneviève
C:Laurence Beaudry
N:©Laurence Beaudry
N:2010
R:jig
M:6/8
L:1/8
K:G
GGG GAB | c2A A2G | FDF d2c | B2G G3 |
EDE A2G | F2g f2e | d2e d2c | B3 A3 |
GGG GAB | c2A A2G | FDF d2c | B2G G3 |
CEG  AGE | B,DG BGB | ded cBA | "Fin" G3 G3 |:
BcB gfe | BcB gBa | cdc gfe | cdc acb | BcB gfe |
BcB gBa |1 bga fge | fde c2A :|2 fge fde | "Retourn A" cdB cBA ||
